src/icons/outline/users/super-admin.svg

<svg width="24" height="24" viewBox="0 0 24 24" fill="none" xmlns="http://www.w3.org/2000/svg">
<g clip-path="url(#clip0_4552_443)">
<path fill-rule="evenodd" clip-rule="evenodd" d="M15.9004 12.8379C15.9676 12.8466 16.0348 12.8592 16.0996 12.874C19.4896 13.7757 22 16.8966 22 20.6221C22 21.9398 20.9501 22.9999 19.6602 23H4.33984C3.04992 22.9999 2 21.9398 2 20.6221C2 16.9065 4.50039 13.7757 7.90039 12.874C8.03023 12.8444 8.16998 12.8243 8.2998 12.8242C8.5698 12.8242 8.83031 12.8937 9.07031 13.0225C9.94027 13.498 10.9401 13.7754 12 13.7754C13.0599 13.7754 14.0597 13.5079 14.9297 13.0225C15.1697 12.8937 15.4302 12.8242 15.7002 12.8242L15.9004 12.8379ZM8.28027 14.3408C5.47027 15.0839 3.5 17.6695 3.5 20.6221C3.5 21.0976 3.87992 21.4843 4.33984 21.4844H19.6396C20.0996 21.4844 20.4805 21.0977 20.4805 20.6221C20.4805 17.7713 18.6407 15.2457 15.9619 14.4151L15.7002 14.3408C15.6885 14.3408 15.6767 14.3439 15.667 14.3467C15.6603 14.3486 15.6545 14.3505 15.6504 14.3506C14.5404 14.9649 13.27 15.292 12 15.292C10.73 15.292 9.45961 14.9649 8.34961 14.3506L8.2998 14.3408H8.28027Z" fill="#3C3B44"/>
<path d="M16.5225 7.39454C16.5314 7.49363 16.54 7.59331 16.54 7.6924C16.5398 10.1791 14.5 12.2001 11.9902 12.2002C9.66023 12.2002 7.77 10.4461 7.5 8.21681L8.91992 8.06837C9.10992 9.59422 10.41 10.7832 12 10.7832C13.7176 10.7832 15.1064 9.40013 15.1104 7.69923C15.1101 7.64463 15.1023 7.59442 15.0947 7.54591C15.0874 7.49888 15.0801 7.4526 15.0801 7.40431L16.5098 7.24611C16.5131 7.29557 16.518 7.34508 16.5225 7.39454Z" fill="#3C3B44"/>
<path d="M11.0596 1.10353C11.1695 0.97475 11.37 0.964203 11.5 1.08302L13.54 3.45118L13.5596 3.47072C13.6796 3.58961 13.88 3.57985 14 3.46095L15.6396 1.86622C15.6996 1.8365 15.7601 1.81642 15.8301 1.81642L15.8945 1.82618C16.0402 1.86171 16.1396 1.98741 16.1396 2.14357L16.0801 5.73048H16.0596C16.0693 5.7401 16.0801 5.75978 16.0801 5.75978L14.5195 5.92872C14.5095 5.91882 14.5098 5.90822 14.5098 5.90822L7.58984 6.71095V6.68165H7.58008C7.58008 6.67175 7.58984 6.64161 7.58984 6.64161L6.72949 3.26271C6.69985 3.20351 6.70964 3.1344 6.72949 3.07521C6.78947 2.90682 6.97968 2.82739 7.13965 2.88673L9.09961 4.03615C9.10961 4.04605 9.11988 4.05568 9.12988 4.05568C9.27988 4.13494 9.4698 4.06563 9.5498 3.917L11.0303 1.14259C11.0401 1.12321 11.0497 1.11327 11.0596 1.10353Z" fill="#3C3B44"/>
</g>
<defs>
<clipPath id="clip0_4552_443">
<rect width="24" height="24" fill="white"/>
</clipPath>
</defs>
</svg>

<svg xmlns="http://www.w3.org/2000/svg" width="24" height="24" fill="none" viewBox="0 0 24 24"><g fill="currentColor" clip-path="url(#a)"><path fill-rule="evenodd" d="M15.9 12.838q.102.014.2.036c3.39.902 5.9 4.023 5.9 7.748C22 21.94 20.95 23 19.66 23H4.34C3.05 23 2 21.94 2 20.622c0-3.715 2.5-6.846 5.9-7.748.13-.03.27-.05.4-.05.27 0 .53.07.77.199a6.1 6.1 0 0 0 2.93.752 6 6 0 0 0 2.93-.752c.24-.13.5-.199.77-.199zM8.28 14.34c-2.81.743-4.78 3.329-4.78 6.281 0 .476.38.862.84.862h15.3c.46 0 .84-.386.84-.862 0-2.85-1.84-5.376-4.518-6.207l-.262-.074a.1.1 0 0 0-.033.006q-.01.004-.017.004a7.6 7.6 0 0 1-3.65.941c-1.27 0-2.54-.327-3.65-.941l-.05-.01z" clip-rule="evenodd"/><path d="M16.523 7.395c.008.099.017.198.017.297 0 2.487-2.04 4.508-4.55 4.508A4.526 4.526 0 0 1 7.5 8.217l1.42-.149A3.1 3.1 0 0 0 12 10.783 3.1 3.1 0 0 0 15.11 7.7c0-.054-.008-.105-.015-.153q-.014-.07-.015-.142l1.43-.158q.005.075.012.149M11.06 1.104c.11-.13.31-.14.44-.021l2.04 2.368.02.02c.12.119.32.109.44-.01l1.64-1.595c.06-.03.12-.05.19-.05l.065.01a.32.32 0 0 1 .245.318l-.06 3.586h-.02c.01.01.02.03.02.03l-1.56.169c-.01-.01-.01-.02-.01-.02l-6.92.802v-.03h-.01c0-.01.01-.04.01-.04l-.86-3.378c-.03-.06-.02-.129 0-.188a.32.32 0 0 1 .41-.188l1.96 1.15q.015.017.03.019c.15.079.34.01.42-.139l1.48-2.774c.01-.02.02-.03.03-.04"/></g><defs><clipPath id="a"><path fill="currentColor" d="M0 0h24v24H0z"/></clipPath></defs></svg>
